!! 00000] TT[WS
!!!OTL: Zhi shuojin
!!!ARE: Asia, China, Shanxi Xixian
!! Ethnic Group: Han
!! WII, 253 (1)
!!!SCT: J0779
!!!YEM: Copyright 1995, estate of Helmut Schaffrath.
**kern
*ICvox
*Ivox
*M2/4
*k[b-]
*F:
{8cc
16dd
16ff
8cc
8a
=1
8dd
8ff
8dd
8cc
=2
8a
8cc
16a
16g
8f
=3
8.g
16a
4g}
=4
{8cc
16cc
16a
8cc
8dd
=5
16d
16f
16c
16d
8.f
16g
=6
16a
16cc
16a
16g
16f
16g
8d
=7
2c}
==
!!!AGN: Xiaodiao. Laodong, Xinminge
!!!ONB: ESAC (Essen Associative Code) Database: CHINA
!!!AMT: simple duple
!!!AIN: vox
!!!EED: Helmut Schaffrath
!!!EEV: 1.0
*-
